X:1
T:Litany of the BVM - Biordi
T:#
%%score [ 1 2 3 4 ]
L:1/8
Q:1/4=200
M:none
K:C
V:1 treble nm="Soprano" snm="S"
V:2 treble nm="Alto" snm="A"
V:3 treble-8 nm="Tenor" snm="T"
V:4 bass nm="Bass" snm="B"
V:1
"^Litany of the Blessed Virgin Mary""^Giovanni Biordi\n(1691-1748)" G12 ^F4 | A4 G4 G6 G2 | %2
w: Ky\- ri-|e e- le- i-|
 ^F4 d4 A4 B4 | G12 ^F4 | G4 G8 G4 | E2 ^F2 G8 F4 |[M:4/2] G8 z8 | z8 z4 ^G4 | A4 B4 c8- | %9
w: son. Chri- ste e-|le- i-|son. Ky- ri-|e e- le- i-|son.|Chri-|ste ex- au\-|
 c4 B4 c8 | z16 | z8 d4 d2 c2 | B4 B4 A4 G4 | ^F4 F4 z8 | z8 z4 e4- | e2 d2 c6 A2 (c4- | %16
w: * di nos.||Fi- li Re-|dem- ptor mun- di|De- us,|mi\-|* se- re- re no\-|
 c4 B4) c8 | G4 A4 G4 G2 G2 | ^F2 F2 (G8 F4) | G8 A6 A2 | ^G2 G2 (A8 G4) | A8 A8 | B4 B4 A4 A4 | %23
w: * * bis.|San- cta Tri- ni- tas|u- nus De\- *|us, mi- se-|re- re no\- *|bis. San-|cta Ma- ri- a,|
 G6 G2 G4 G4 | G6 G2 G4 G4 | E2 F2 (G8 ^F4) | G8 G6 G2 | G4 G4 G6 G2 | G8 E2 F2 G4- | %29
w: San- cta De- i|Ge- ni- trix, o-|ra pro no\- *|bis. San- cta|Vir- go vir- gi-|num, o- ra pro|
 G4 ^F4 G4 G4- | G4 D4 G8- | (G4 ^F4) G8 | z16 | z8 z4 G4 | F4 E4 ||[M:3/2] E8 E4 | A4 A4 G4 | %37
w: * no- bis. Ma\-|* ter Chri\-|* * sti,||o-|ra pro|no- bis.|Ma- ter pu-|
 G6 G2 G4 |[M:3/2] G4 G4 ^F4 | G6 G2 G4 | G4 A4 A4 || A8 A8 | A4 A2 d2 c4 B4 | A8 B4 B4 | %44
w: ris- si- ma,|Ma- ter ca-|stis- si- ma,|or- a pro|no- bis.|Ma- ter in- vi- o-|la- ta, o-|
 d4 G4 G8 |[M:4/2] G8 z8 | z4 c4 B4 G4 | A6 A2 G8 | z16 | z4 G8 ^F4 | G4 E4 D4 D2 D2 | %51
w: ra pro no-|bis.|Ma- ter a-|ma- bi- lis,||Ma- ter|Sal- va- to- ris, o-|
 E2 =F2 (G8 ^F4) | G8 B4 d4 | c2 B2 B8 A4 | B4 B4 G4 E4 | (A2 G2 G2 ^FE F8) | E8 ^G6 G2 | %57
w: ra pro no\- *|bis. Vir- go|pru- den- tis- si-|ma, o- ra pro|no\- * * * * *|bis. Vir- go|
 ^G4 A4 G8 | ^G4 A4 B4 E4 | E8 E4 B4 | c4 e4 (A2 B2 c2 A2 | B4 A8 ^G4) | A8 z8 | z4 A8 G4 | %64
w: ve- ne- ran-|da et prae- di-|can- da, o-|ra pro no\- * * *||bis.|Vir- go|
 F8 E4 G4- | G4 F8 E4 | D8 E8 | G6 G2 G4 A4 | _B6 B2 A8 | A6 A2 B2 B2 c4- | c4 B4 c4 c4 | %71
w: cle- mens, o\-|* ra pro|no- bis.|Spe- cu- lum ju-|sti- ti- ae,|Se- des sa- pi- en\-|* ti- ae, o-|
 G4 A4 (E6 F2 | G4 F8 E4) | F16 ||[M:3/2] A8 A4 | G4 G4 F4 | E6 E2 E4 | F4 F4 G4 | E12 | ^F8 A4 | %80
w: ra pro no\- *||bis.|Cau- sa|no- strae lae-|ti- ti- ae,|o- ra pro|no-|bis. Vas|
[M:3/2] A6 _B2 G4 | A8 A4 | A4 F4 E4 | D6 D2 D4 | z12 | z12 | z12 | z12 | z12 | z12 | z12 | z12 | %92
w: spi- ri- tu-|a- le,|Vas ho- no-|ra- bi- le,|||||||||
 z4 D4 D4 | G6 G2 G4 | z12 | z12 | A6 A2 A4 | B8 B4 | z4 G4 G4 | (A4 B4) c4 | B8 G4 | z4 G8- | %102
w: Ro- sa|my- sti- ca,|||Foe- de- ris|ar- ca,|Stel- la|ma\- * tu-|ti- na,|o\-|
 G4 F4 E4 | G12 | G12 || c12 c4 | _B2 A2 (A8 G4) | A4 E4 F4 F2 F2 | F4 E4 D8 | D8 z4 G4- | %110
w: * ra pro|no-|bis.|Sa- lus|in- fir- mo\- *|rum, Re- fu- gi- um|pec- ca- to-|rum, Con\-|
 G4 G4 ^G4 G4 | A4 A4 B8 |[M:4/2] E8 z4 E4 | ^F6 F2 F4 G4 | ^F4 G4 E8 | D4 G4 E4 C4 | (G12 ^F4) | %117
w: * so- la- trix|af- fli- cto-|rum, Au-|xi- li- um Chri-|sti- a- no-|rum, o- ra pro|no\- *|
 G8 z8 | z8 z4 B4 | e2 ee e2 d2 c4 B2 B2 | A6 A2 (A4 d4- | d2 c2 B4 A8) | A4 A4 B2 c2 d2 d2 | %123
w: bis.|Re-|gi- na A- po- sto- lo- rum, o-|ra pro no\- *||bis. Re- gi- na Mar- ty-|
 c4 B2 B2 A6 E2 | G8 z4 G4 | ^F4 A4 B8 | B4 G4 E4 A4- | A4 (G8 ^F4) | G4 G4 G4 G2 G2 | %129
w: rum, o- ra pro no-|bis, o-|ra pro no-|bis, o- ra pro|* no\- *|bis. Re- gi- na San-|
 G4 G4 ^F6 F2 | ^F8 (d6 c2 | B2 A2)[Q:1/4=197] G8[Q:1/4=194] G4 | %132
w: cto- rum o- mni-|um, o\- *|* * ra pro|
[Q:1/4=191] (c4[Q:1/4=188] A8[Q:1/4=185] G4- | %133
w: no\- * *|
[Q:1/4=183] G4[Q:1/4=181] ^F4)[Q:1/4=180] !fermata!G8 || %134
w: * * bis.|
[Q:1/4=180][Q:1/4=180][Q:1/4=180][Q:1/4=180] z16 | z16 | z16 | z16 | z16 | z8 z4 A4- | %140
w: |||||A\-|
 A4 ^F4 (D4 G4- | G4 ^F4) G4 G4 | ^F4 F2 D2 G4 D4 | E8 ^D4 ^F4- | F4 G4 G2 E2 A4- | A4 ^G4 A4 E4- | %146
w: * gnus De\- *|* * i, qui|tol- lis pec- ca- ta|mun- di, ex\-|* au- di nos, Do\-|* mi- ne. A\-|
 E4 ^F4 G8 | ^F8 z4 F4 | G4 G2 B2 A2 E2 G4- | (G4 ^F4) G8 | z4 d8 c4 | %151
w: * gnus De-|i, qui|tol- lis pec- ca- ta mun\-|* * di,|mi- se-|
[Q:1/4=178] B4[Q:1/4=175] A4[Q:1/4=171] (c6[Q:1/4=168] B2 | %152
w: re- re no\- *|
[Q:1/4=165] A4[Q:1/4=162] G4[Q:1/4=159] ^F4[Q:1/4=156] G4- | %153
w: |
[Q:1/4=154] G4[Q:1/4=151] ^F4)[Q:1/4=150] !fermata!G16 |] %154
w: * * bis.|
V:2
 D12 D4 | D2 D2 D8 ^C4 | D4 ^F8 G4 | (D4 E4) C6 C2 | B,4 B,6 C2 D4 | (C4 B,4) D6 D2 | %6
w: Ky\- ri-|e e- le- i-|son. Chri- ste|e\- * le- i-|son. Ky- ri- e|e\- * le- i-|
[M:4/2] D4 D4 E4 C4- | C4 D4 B,4 E4 | E4 G4 G8- | G4 G4 E8 | G4 G2 F2 E4 E4 | D4 D4 z8 | z16 | %13
w: son. Chri- ste au\-|* di nos. Chri-|ste ex- au\-|* di nos.|Pa- ter de coe- lis|De- us,||
 z8 E4 E2 D2 | C4 C4 B,4 B,4 | C4 E4 F4 G4 | G8 E8 | E4 F4 E4 E2 D2 | C4 B,4 C8 | D8 D4 D4 | %20
w: Spi- ri- tus|san- cte De- us,|mi- se- re- re|no- bis.|San- cta Tri- ni- tas|u- nus De-|us, mi- se-|
 E4 F4 E8 | E8 ^F8 | G4 G4 ^F4 F4 | D6 D2 E4 E4 | D6 D2 D4 D4 | E4 D4 D8 | D8 D6 D2 | E4 E4 D6 D2 | %28
w: re- re no-|bis. San-|cta Ma- ri- a,|San- cta De- i|Ge- ni- trix, o-|ra pro no-|bis. San- cta|Vir- go vir- gi-|
 D4 D4 E4 D4 | D8 D4 D4- | D4 B,4 E8- | (E4 D2 C2) D4 G4- | G4 G2 G2 F2 E2 E4- | E4 D4 E4 E4 | %34
w: num, o- ra pro|no- bis, Ma\-|* ter Chri\-|* * * sti, Ma\-|* ter di- vi- nae gra\-|* ti- ae, o-|
 D4 C4 ||[M:3/2] B,8 A,4 | E4 F4 D4 | E6 E2 E4 |[M:3/2] E4 E4 D4 | D6 D2 D4 | D4 F4 F4 || E8 D8 | %42
w: ra pro|no- bis.|Ma- ter pu-|ris- si- ma,|Ma- ter ca-|stis- si- ma,|or- a pro|no- bis.|
 z16 | z8 D4 E2 G2 | F4 E4 D8 |[M:4/2] E4 E4 ^F2 F2 (G4- | G4 ^F4) G8 | z8 z4 G4- | G4 ^F4 G4 E4 | %49
w: |Ma- ter in-|te- me- ra-|ta, o- ra pro no\-|* * bis.|Ma\-|* ter Cre- a-|
 D8 E4 D4 | B,2 B,2 (C8 B,4-) | (B,4 A,2 G,2 A,8) | B,8 D4 B,4 | C4 D4 E6 E2 | ^D8 E4 C4 | %55
w: to- ris, o-|ra pro no\- *||bis. Vir- go|pru- den- tis- si-|ma, o- ra|
 A,4 (E8 ^D4) | E8 E6 E2 | E4 E4 E8 | E4 E4 D4 C4 | B,8 B,8 | z4 G4 F4 E4 | (F8 E8) | E8 z4 E4- | %63
w: pro no\- *|bis. Vir- go|ve- ne- ran-|da et prae- di-|can- da,|o- ra pro|no\- *|bis. Vir\-|
 E4 D4 C4 B,4 | z4 (D8 C2 B,2) | (A,2 B,2 C2 A,2) B,4 C4- | C4 B,4 C8 | E6 E2 E2 C2 F4- | %68
w: * go po- tens,|o\- * *|ra\- * * * pro no\-|* * bis.|Spe- cu- lum ju- sti\-|
 F4 E4 F8 | F4 F4 D4 E4 | F6 F2 E4 C4 | E4 F4 C8- | C16 | C16 ||[M:3/2] F8 F4 | E4 E4 D4 | %76
w: * ti- ae,|Se- des sa- pi-|en- ti- ae, o-|ra pro no\-||bis.|Cau- sa|no- strae lae-|
 ^C6 C2 C4 | D4 D4 D4 | (D8 ^C4) | D8 F4 |[M:3/2] F6 G2 E4 | F8 F4 | F4 D4 C4 | B,6 B,2 B,4 | z12 | %85
w: ti- ti- ae,|o- ra pro|no\- *|bis. Vas|spi- ri- tu-|a- le,|Vas ho- no-|ra- bi- le,||
 z4 F4 F4 | D4 D4 _B,4 | _E8 D4 | D8 C4 | D4 D8- | D4 C4 (_B,4- | B,4 A,8) | G,12 | z12 | z12 | %95
w: Vas in-|si- gne de-|vo- ti-|o- nis,|o- ra|* pro no\-||bis,|||
 z4 A,4 A,4 | D6 D2 D4 | z12 | z4 E4 E4 | F8 E4 | D8 D4 | z4 E4 D4 | C4 D4 E4 | D12 | E12 || %105
w: Do- mus|au- re- a,||Stel- la|ma- tu-|ti- na,|o- ra,|o- ra pro|no-|bis.|
 z8 F6 F2 | F4 E4 D8 | ^C4 C4 D4 D2 D2 | D4 C4 B,8 | B,4 B,8 B,4 | D8 E4 E4- | E4 D4 D8- | %112
w: Sa- lus|in- fir- mo-|rum, Re- fu- gi- um|pec- ca- to-|rum, Con- so-|la- trix af\-|* fli- cto\-|
[M:4/2] D4 ^C4 z4 C4 | D6 D2 D4 D4 | D4 B,4 C8 | D8 z4 E4 | D4 D4 D8 | D8 z8 | z4 D4 G2 G2 G2 F2 | %119
w: * rum, Au-|xi- li- um Chri-|sti- a- no-|rum, o-|ra pro no-|bis.|Re- gi- na Pro- phe-|
 E4 E4 z8 | (D6 E2 ^F8) | G6 =F2 E8 | ^F8 z4 D4 | E2 F2 G2 G2 =F4 E4- | E2 E2 D8 ^C4 | %125
w: ta- rum,|o\- * *|ra pro no-|bis. Re-|gi- na Con- fes- so- rum|* et Vir- gi-|
 D4 D4 B,4 D4 | (E6 D2 C2 D2 E4 | D16) | D4 D4 D4 D2 D2 | E4 D4 D6 D2 | D8 z8 | (G6 F2 E2 D2) C4- | %132
w: num, o- ra pro|no\- * * * *||bis. Re- gi- na San-|cto- rum o- mni-|um,|o\- * * * ra|
 C4 E4 D8- | D8 !fermata!D8 || z8 D8- | D4 E4 F8 | E4 E4 D4 D2 E2 | F2 E2 (E8 D4) | E8 G6 G2 | %139
w: * pro no\-|* bis.|A\-|* gnus De-|i, qui tol- lis pec-|ca- ta mun\- *|di, par- ce|
 A4 F4 E6 E2 | D16 | z16 | z16 | z16 | z16 | z4 E8 ^C4 | (A,4 D8 ^C4) | D8 z4 D4 | %148
w: no- bis Do- mi-|ne.|||||A- gnus|De\- * *|i, qui|
 B,4 B,2 B,2 C4 D4 | (E4 C4) D8- | D8 z4 G4- | G4 F4 E8 | E8 D8- | D8 !fermata!D16 |] %154
w: tol- lis pec- ca- ta|mun\- * di,|* mi\-|* se- re-|re no\-|* bis.|
V:3
 B12 A4 | A4 B4 G6 G2 | A8 d4 G4 | B4 c4 A6 A2 | G4 d6 c2 B4 | (A4 G4) A6 A2 | %6
w: Ky\- ri-|e e- le- i-|son. Chri- ste|e\- * le- i-|son. Ky- ri- e|e\- * le- i-|
[M:4/2][K:treble-8] B4 B8 c4 | A4 B4 ^G4 B4 | c4 d4 (e8 | d6) d2 c8 | e4 e2 d2 c4 c4 | %11
w: son. Chri- ste|au- di nos. Chri-|ste ex- au\-|* di nos.|Pa- ter de coe- lis|
 B4 B4 B4 B2 A2 | G4 G4 ^F4 G4 | A4 A4 c4 c2 B2 | A4 A4 ^G4 G4 | A6 B2 c4 e4 | d8 c8 | z16 | %18
w: De- us, Fi- li Re-|dem- ptor mun- di|De- us, Spi- ri- tus|san- cte De- us,|mi- se- re- re|no- bis.||
 z8 z4 c4- | c4 B4 A4 A4 | B16 | ^c8 d8 | B4 G4 d4 d4 | B6 B2 c4 c4 | B6 B2 B4 d4 | c4 B4 A8 | %26
w: Mi\-|* se- re- re|no-|bis. San-|cta Ma- ri- a,|San- cta De- i|Ge- ni- trix, o-|ra pro no-|
 B8 B6 B2 | c4 c4 B6 B2 | B4 d4 c4 B4 | A8 B8 | B12 G4 | c8 B8 | e4 e2 d2 c4 B4 | A6 A2 B4 c4 | %34
w: bis. San- cta|Vir- go vir- gi-|num, o- ra pro|no- bis.|Ma- ter|Chri- sti,|Ma- ter di- vi- nae|gra- ti- ae, o-|
 A4 A4- ||[M:3/2] A4 ^G4 A4 | c4 c4 B4 | c6 c2 c4 |[M:3/2][K:treble-8] B4 c4 A4 | B6 B2 B4 | %40
w: ra pro|* no- bis.|Ma- ter pu-|ris- si- ma,|Ma- ter ca-|stis- si- ma,|
 B4 c2 A2 (d4- || d4 ^c4 d8) | z16 | z8 G4 G2 G2 | A2 B2 (c8 B4) |[M:4/2][K:treble-8] c4 c4 A4 G4 | %46
w: or- a pro no\-|* * bis.||Ma- ter in-|te- me- ra\- *|ta, o- ra pro|
 A8 G8 | d6 d2 B4 G4 | A6 A2 G4 A4 | F4 G4 (C4 D4) | G8 z8 | z16 | z4 G8 G4 | A4 B4 c6 c2 | %54
w: no- bis.|Ma- ter ad- mi-|ra- bi- lis, o-|ra pro no\- *|bis.||Vir- go|pru- den- tis- si-|
 B8 z4 A4 | ^F4 E4 B8 | E8 B6 B2 | B4 c4 B8 | B4 E4 ^G4 A4 | ^G8 G8 | z4 c4 c6 c2 | (d6 c2 B8) | %62
w: ma, o-|ra pro no-|bis. Vir- go|ve- ne- ran-|da et prae- di-|can- da,|o- ra pro|no\- * *|
 A8 z8 | z8 z4 G4 | A4 B4 c8 | F4 A4 G4 C4 | G8 C8 | c6 c2 c4 c4 | d4 _B4 c8 | c6 F2 G4 G4 | %70
w: bis.|Vir-|go fi- de-|lis, o- ra pro|no- bis.|Spe- cu- lum ju-|sti- ti- ae,|Se- des sa- pi-|
 d6 d2 G8 | z8 z4 c4 | G4 A4 G8 | A16 ||[M:3/2] c8 c4 | c4 c4 A4 | A6 A2 A4 | A4 _B4 B4 | A12 | %79
w: en- ti- ae,|o-|ra pro no-|bis.|Cau- sa|no- strae lae-|ti- ti- ae,|o- ra pro|no-|
 A8 d4 |[M:3/2][K:treble-8] d6 _B2 c4 | F8 F4 | A4 _B4 c4 | G6 G2 G4 | z4 c4 c4 | A4 A4 F4 | %86
w: bis. Vas|spi- ri- tu-|a- le,|Vas ho- no-|ra- bi- le,|Vas in-|si- gne de-|
 (_B6 c2) d4 | G4 A4 ^F4- | F4 G8 | A4 (_B2 A2 G2 F2 | E4 ^F4) G4 | (G8 ^F4) | G12 | G4 G4 G4 | %94
w: vo\- * ti-|o- nis, o\-|* ra,|o- ra * * *|* * pro|no\- *|bis.|Tur- ris Da-|
 c6 c2 c4 | z12 | z12 | z12 | z12 | z12 | z12 | z4 c4 B4 | A4 B4 c4 | (c8 B4) | c12 || z8 A6 A2 | %106
w: vi- di- ca,|||||||o- ra,|o- ra pro|no\- *|bis.|Sa- lus|
 F4 A4 D8 | E4 A4 A4 A2 A2 | G6 G2 G8 | G4 d8 d4 | B8 B4 (B4- | B2 A2 A8) ^G4 | %112
w: in- fir- mo-|rum, Re- fu- gi- um|pec- ca- to-|rum, Con- so-|la- trix af\-|* * * fli-|
[M:4/2][K:treble-8] (A4 E4) A6 A2 | A4 d4 A4 B4 | B4 B4 (B4 A4) | B8 z4 G4 | G4 B4 A8 | %117
w: cto\- * rum, Au-|xi- li- um Chri-|sti- a- no\- *|rum, o-|ra pro no-|
 B4 G4 d2 d2 d2 c2 | B4 B4 z4 G4 | c2 cc c2 B2 A4 G2 G2 | ^F6 F2 (F4 A4 | B2 c2 d8 ^c4) | d8 z8 | %123
w: bis. Re- gi- na An- ge-|lo- rum, Re-|gi- na A- po- sto- lo- rum, o-|ra pro- no\- *||bis.|
 z4 G4 A2 B2 c2 c2 | B4 B2 A2 G6 G2 | A8 z4 B4 | G4 B4 (c8- | c4 B4 A8) | B4 B4 B4 B2 B2 | %129
w: Re- gi- na Con- fes-|so- rum et Vir- gi-|num, o-|ra pro no\-||bis. Re- gi- na San-|
 c4 d4 A6 A2 | A4 (d6 c2 B2 A2) | G8 (c4 e4- | e2 d2 c4) B4 B4 | A8 !fermata!B8 || d12 B4 | %135
w: cto- rum o- mni-|um, o\- * * *|ra, o\- *|* * * ra pro|no- bis.|A- gnus|
 (G4 c8 B4) | c4 c4 B4 B2 B2 | c4 e4 A8 | B4 B6 B2 c4- | c2 A2 d8 ^c4 | d4 A8 B4 | c8 B4 B4 | %142
w: De\- * *|i, qui tol- lis pec-|ca- ta mun-|di, par- ce no\-|* bis Do- mi-|ne. A- gnus|De- i, qui|
 A4 A2 B2 c2 B2 (B4- | B4 A4) B8 | d8 e4 e2 c2 | B6 B2 A8- | A8 z8 | z4 A4 B4 B2 A2 | %148
w: tol- lis pec- ca- ta mun\-|* * di,|ex- au- di nos,|Do- mi- ne.||Qui tol- lis pec-|
 G6 F2 (E4 D4) | C4 c8 B4 | A8 G8 | d8 G8 | c6 B2 A4 G4 | A8 !fermata!G16 |] %154
w: ca- ta mun\- *|di, mi- se-|re- re|no- bis,|mi- se- re- re|no- bis.|
V:4
 G,12 D,4 | ^F,4 G,4 E,6 E,2 | D,8 z8 | z16 | z4 G,,6 A,,2 B,,4 | (C,4 E,4) D,6 D,2 | %6
w: Ky\- ri-|e e- le- i-|son.||Ky- ri- e|e\- * le- i-|
[M:4/2] G,,4 G,8 A,4 | F,4 D,4 E,4 E,4 | A,4 G,4 (C,2 D,2 E,2 F,2 | G,6) G,2 C,8 | %10
w: son. Chri- ste|au- di nos. Chri-|ste ex- au\- * * *|* di nos.|
 C,4 C,2 D,2 E,4 C,4 | G,4 G,4 G,,4 G,,2 A,,2 | B,,4 G,,4 D,4 E,4 | D,4 D,4 A,,4 A,,2 B,,2 | %14
w: Pa- ter de coe- lis|De- us, Fi- li Re-|dem- ptor mun- di|De- us, Spi- ri- tus|
 C,4 A,,4 E,4 E,4 | A,6 G,2 F,4 C,4 | G,8 C,4 C4- | C4 F,4 C4 C2 B,2 | A,4 G,4 A,8 | G,4 G,8 F,4 | %20
w: san- cte De- us,|mi- se- re- re|no- bis. San\-|* cta Tri- ni- tas|u- nus De-|us, mi- se-|
 E,4 D,4 E,8 | A,,8 z8 | z16 | G,6 G,2 E,4 C,4 | G,6 G,2 G,4 B,,4 | C,4 G,,4 D,8 | G,,8 G,6 G,2 | %27
w: re- re no-|bis.||San- cta De- i|Ge- ni- trix, o-|ra pro no-|bis. San- cta|
 E,4 C,4 G,6 G,2 | G,4 B,,4 C,4 G,,4 | D,8 G,,8 | G,12 E,4 | A,8 G,8 | C4 C2 B,2 A,4 G,4 | %33
w: Vir- go vir- gi-|num, o- ra pro|no- bis.|Ma- ter|Chri- sti,|Ma- ter di- vi- nae|
 F,6 F,2 E,4 C,4 | D,4 A,,4 ||[M:3/2] E,8 A,,4 | A,4 F,4 G,4 | C,6 C,2 C,4 |[M:3/2] E,4 C,4 D,4 | %39
w: gra- ti- ae, o-|ra pro|no- bis.|Ma- ter pu-|ris- si- ma,|Ma- ter ca-|
 G,,6 G,,2 G,,4 | G,4 F,4 D,4 || A,8 D,8 | D,4 D,2 D,2 E,2 F,2 (G,4- | G,4 ^F,4) G,4 E,4 | %44
w: stis- si- ma,|or- a pro|no- bis.|Ma- ter in- vi- o- la\-|* * ta, o-|
 D,4 C,4 G,8 |[M:4/2] C,8 z8 | z8 z4 G,4 | F,4 D,4 E,6 E,2 | D,8 z4 C4- | C4 B,4 C4 A,4 | %50
w: ra pro no-|bis.|Ma-|ter a- ma- bi-|lis, Ma\-|* ter Sal- va-|
 G,8 G,4 G,,4 | C,4 E,4 D,8 | G,,8 z8 | z16 | z16 | z16 | z8 E,6 E,2 | E,4 A,,4 E,8 | %58
w: to- ris, o-|ra pro no-|bis.||||Vir- go|ve- ne- ran-|
 E,4 C,4 B,,4 A,,4 | E,8 E,8 | z4 E,4 F,4 A,4 | (D,2 E,2 F,2 D,2 E,8) | A,,4 A,8 E,4 | F,8 E,8 | %64
w: da et prae- di-|can- da,|o- ra pro|no\- * * * *|bis. Vir- go|po- tens,|
 z16 | z16 | z16 | C,6 C,2 C,4 A,,4 | G,,6 G,,2 F,,4 F,4- | F,4 F,4 F,4 E,4 | D,6 D,2 C,8 | %71
w: |||Spe- cu- lum ju-|sti- ti- ae, Se\-|* des sa- pi-|en- ti- ae,|
 z8 z4 C,4 | E,4 F,4 C,8 | F,,16 ||[M:3/2] F,8 F,4 | C,4 C,4 D,4 | A,,6 A,,2 A,,4 | %77
w: o-|ra pro no-|bis.|Ca- sa|no- strae lae-|ti- ti- ae|
 D,4 _B,,4 G,,4 | A,,12 | D,12 |[M:3/2] z12 | z12 | z12 | z4 G,4 G,4 | E,4 E,4 C,4 | %85
w: o- ra pro|no-|bis.||||Vas in-|si- gne de-|
 (F,6 E,2 D,2 C,2 | _B,,8) B,,4 | (C,8 D,4-) | (D,4 _E,8) | D,4 _B,,8 | C,8 G,,4- | G,,4 D,8 | %92
w: vo\- * * *|* ti-|o\- *||nis, o-|ra pro|* no-|
 G,,12 | z12 | C,4 C,4 C,4 | F,6 F,2 F,4 | z12 | G,6 A,2 B,4 | C8 C4 | z12 | z4 G,4 F,4 | E,12 | %102
w: bis.||Tur- ris e-|bur- ne- a,||Ja- nu- a|coe- li,||o- ra,|o-|
 F,8 C,4 | G,12 | C,12 || z8 F,6 F,2 | D,4 C,4 _B,,8 | A,,4 A,,4 D,4 D,2 D,2 | _B,,4 C,4 G,,8 | %109
w: ra pro|no-|bis.|Sa- lus|in- fir- mo-|rum, Re- fu- gi- um|pec- ca- to-|
 G,,8 z4 G,4- | G,4 G,4 E,4 E,4 | ^C,4 D,4 B,,8 |[M:4/2] A,,8 z4 A,,4 | D,6 D,2 D,4 G,4 | %114
w: rum, Con\-|* so- la- trix|af- fli- cto-|rum, Au-|xi- li- um Chri-|
 D,4 E,4 C,8 | G,,8 z4 C,4 | B,,4 G,,4 D,8 | G,,8 z4 D,4 | G,2 G,2 G,2 G,F, E,4 E,4 | C,8 F,4 G,4 | %120
w: sti- a- no-|rum, o-|ra pro no-|bis. Re-|gi- na Pa- tri- ar- cha- rum,|o- ra pro|
 D,8 D,4 D,4 | G,4 G,,4 A,,8 | D,8 z8 | z4 E,4 F,2 G,2 A,2 A,2 | G,4 G,2 F,2 E,6 E,2 | D,8 z4 G,4 | %126
w: no- bis, o-|ra- pro no-|bis.|Re- gi- na Con- fes-|so- rum et Vir- gi-|num, o-|
 E,4 G,4 (A,6 G,2 | ^F,4 G,4 D,8) | G,,4 G,4 G,4 G,2 G,2 | E,4 B,,4 D,6 D,2 | D,8 z4 (G,4- | %131
w: ra pro no\- *||bis. Re- gi- na San-|cto- rum o- mni-|um, o\-|
 G,2 F,2 E,2 D,2 C,8) | A,,4 A,,4 (B,,6 C,2 | D,8) !fermata!G,,8 || z8 G,8- | G,4 E,4 D,8 | %136
w: |ra pro no\- *|* bis.|A\-|* gnus De-|
 C,4 C,4 G,4 G,2 G,2 | A,4 C4 F,8 | E,8 E,6 E,2 | F,6 D,2 A,6 A,2 | D,4 D,8 B,,4 | A,,8 G,,4 G,4 | %142
w: i, qui tol- lis pec-|ca- ta mun-|di, par- ce|no- bis Do- mi-|ne. A- gnus|De- i, qui|
 D,4 D,2 D,2 E,4 G,4 | C,8 B,,8 | B,,8 C,4 C,2 A,,2 | E,6 E,2 A,,4 A,4- | A,4 ^F,4 E,8 | %147
w: tol- lis pec- ca- ta|mun- di,|ex- au- di nos,|Do- mi- ne. A\-|* gnus De-|
 D,8 z4 D,4 | E,4 E,2 D,2 C,4 B,,4 | A,,8 G,,4 G,4- | G,4 F,4 E,8 | D,8 (C,8- | C,8 D,8- | %153
w: i, qui|tol- lis pec- ca- ta|mun- di, mi\-|* se- re-|re no\-||
 D,8) !fermata!G,,16 |] %154
w: * bis.|

